src/pos-icons/badge-account-outline.svg

<svg height="24" viewBox="0 0 24 24" width="24" xmlns="http://www.w3.org/2000/svg"><path d="m17 3h-3v2h3v16h-10v-16h3v-2h-3a2 2 0 0 0 -2 2v16a2 2 0 0 0 2 2h10a2 2 0 0 0 2-2v-16a2 2 0 0 0 -2-2m-5 4a2 2 0 0 1 2 2 2 2 0 0 1 -2 2 2 2 0 0 1 -2-2 2 2 0 0 1 2-2m4 8h-8v-1c0-1.33 2.67-2 4-2s4 .67 4 2zm0 3h-8v-1h8zm-4 2h-4v-1h4zm1-15h-2v-4h2z"/></svg>

<?xml version="1.0" encoding="UTF-8"?><!DOCTYPE svg PUBLIC "-//W3C//DTD SVG 1.1//EN" "http://www.w3.org/Graphics/SVG/1.1/DTD/svg11.dtd"><svg xmlns="http://www.w3.org/2000/svg" xmlns:xlink="http://www.w3.org/1999/xlink" version="1.1" id="mdi-badge-account-outline" width="24" height="24" viewBox="0 0 24 24"><path d="M17,3H14V5H17V21H7V5H10V3H7A2,2 0 0,0 5,5V21A2,2 0 0,0 7,23H17A2,2 0 0,0 19,21V5A2,2 0 0,0 17,3M12,7A2,2 0 0,1 14,9A2,2 0 0,1 12,11A2,2 0 0,1 10,9A2,2 0 0,1 12,7M16,15H8V14C8,12.67 10.67,12 12,12C13.33,12 16,12.67 16,14V15M16,18H8V17H16V18M12,20H8V19H12V20M13,5H11V1H13V5Z" /></svg>
